sprites/streets-v8/_svg/us-interstate-business-3-small.svg

<?xml version="1.0" encoding="UTF-8" standalone="no"?>
<!-- Created with Inkscape (http://www.inkscape.org/) -->

<svg
   xmlns:dc="http://purl.org/dc/elements/1.1/"
   xmlns:cc="http://creativecommons.org/ns#"
   xmlns:rdf="http://www.w3.org/1999/02/22-rdf-syntax-ns#"
   xmlns:svg="http://www.w3.org/2000/svg"
   xmlns="http://www.w3.org/2000/svg"
   xmlns:sodipodi="http://sodipodi.sourceforge.net/DTD/sodipodi-0.dtd"
   xmlns:inkscape="http://www.inkscape.org/namespaces/inkscape"
   version="1.1"
   width="30"
   height="25"
   id="svg3844"
   inkscape:version="0.91 r13725"
   sodipodi:docname="us-interstate-business-3-small.svg"
   viewBox="0 0 30 25">
  <sodipodi:namedview
     pagecolor="#ffffff"
     bordercolor="#666666"
     borderopacity="1"
     objecttolerance="10"
     gridtolerance="10"
     guidetolerance="10"
     inkscape:pageopacity="0"
     inkscape:pageshadow="2"
     inkscape:window-width="1552"
     inkscape:window-height="938"
     id="namedview5316"
     showgrid="true"
     inkscape:zoom="22.627418"
     inkscape:cx="8.0575346"
     inkscape:cy="14.8612"
     inkscape:window-x="108"
     inkscape:window-y="17"
     inkscape:window-maximized="0"
     inkscape:current-layer="svg3844"
     inkscape:snap-bbox="true"
     showguides="false"
     inkscape:guide-bbox="true"
     inkscape:object-paths="true"
     fit-margin-top="0"
     fit-margin-left="0"
     fit-margin-right="0"
     fit-margin-bottom="0"
     inkscape:snap-intersection-paths="false"
     inkscape:object-nodes="true"
     borderlayer="true"
     inkscape:bbox-paths="true"
     inkscape:snap-bbox-edge-midpoints="true"
     inkscape:snap-nodes="true"
     inkscape:snap-smooth-nodes="true"
     inkscape:document-units="px"
     inkscape:showpageshadow="true">
    <inkscape:grid
       type="xygrid"
       id="grid5480"
       empspacing="2"
       visible="true"
       enabled="true"
       snapvisiblegridlinesonly="true"
       spacingx="0.5px"
       spacingy="0.5px"
       originx="4.0000968"
       originy="1.9983899" />
    <sodipodi:guide
       orientation="1,0"
       position="14.000097,18.49839"
       id="guide5601" />
    <sodipodi:guide
       orientation="1,0"
       position="4.5000968,18.49839"
       id="guide5603" />
    <sodipodi:guide
       position="23.500097,15.99839"
       orientation="0,1"
       id="guide9216" />
  </sodipodi:namedview>
  <defs
     id="defs3846" />
  <metadata
     id="metadata3849">
    <rdf:RDF>
      <cc:Work
         rdf:about="">
        <dc:format>image/svg+xml</dc:format>
        <dc:type
           rdf:resource="http://purl.org/dc/dcmitype/StillImage" />
        <dc:title></dc:title>
      </cc:Work>
    </rdf:RDF>
  </metadata>
  <path
     style="color:#000000;font-style:normal;font-variant:normal;font-weight:normal;font-stretch:normal;font-size:medium;line-height:normal;font-family:sans-serif;text-indent:0;text-align:start;text-decoration:none;text-decoration-line:none;text-decoration-style:solid;text-decoration-color:#000000;letter-spacing:normal;word-spacing:normal;text-transform:none;direction:ltr;block-progression:tb;writing-mode:lr-tb;baseline-shift:baseline;text-anchor:start;white-space:normal;clip-rule:nonzero;display:inline;overflow:visible;visibility:visible;opacity:1;isolation:auto;mix-blend-mode:normal;color-interpolation:sRGB;color-interpolation-filters:linearRGB;solid-color:#000000;solid-opacity:1;fill:#ffffff;fill-opacity:1;fill-rule:evenodd;stroke:none;stroke-width:2;stroke-linecap:butt;stroke-linejoin:miter;stroke-miterlimit:4;stroke-dasharray:none;stroke-dashoffset:0;stroke-opacity:1;color-rendering:auto;image-rendering:auto;shape-rendering:auto;text-rendering:auto;enable-background:accumulate"
     d="M 3.109375,0.5058611 2.623047,1.5527361 C 2.169071,2.528901 1,3.6540028 1,5.9746111 l 0,3 c 0,4.9821999 3.599989,8.2808529 7,10.2421879 3.400011,1.961334 6.775391,2.732422 6.775391,2.732421 L 15,22 15.224609,21.94922 c 0,0 3.37538,-0.771087 6.775391,-2.732421 3.400011,-1.961335 7,-5.259988 7,-10.2421879 l 0,-3 C 29,3.4648452 27.265625,1.3671892 27.265625,1.3671892 L 26.701172,0.628908 25.923828,1.1367205 c 0,0 -3.009199,1.8378906 -5.1875,1.8378906 -2.178303,0 -5.189453,-1.8378906 -5.189453,-1.8378906 L 15,0.7792986 14.453125,1.1367205 c 0,0 -3.009199,1.8378906 -5.1875,1.8378906 -2.178303,0 -5.189453,-1.8378906 -5.189453,-1.8378906 L 3.109375,0.5058611 Z M 15,3.113283 c 0.697619,0.4480964 3.006398,1.8613281 5.736328,1.8613281 2.430144,0 4.379597,-1.0617519 5.367188,-1.65625 C 26.495466,3.987244 27,4.9667082 27,5.9746111 l 0,3 c 0,4.0194099 -2.900011,6.7215029 -6,8.5097659 -2.921247,1.685154 -5.670271,2.367121 -6,2.447265 C 14.670271,19.851502 11.921247,19.169531 9,17.484377 5.900011,15.696114 3,12.994021 3,8.9746111 l 0,-3 C 3,4.7513058 3.4274,4.1056478 3.908203,3.3242205 c 0.99455,0.5971153 2.93602,1.6503906 5.357422,1.6503906 2.729589,0 5.036702,-1.4129674 5.734375,-1.8613281 z"
     id="path9494-5-6"
     inkscape:connector-curvature="0" />
  <rect
     style="color:#3a3836;display:inline;overflow:visible;visibility:visible;opacity:0;fill:#3a3836;fill-opacity:1;fill-rule:nonzero;stroke:none;stroke-width:1;marker:none;enable-background:accumulate"
     id="rect3933-5"
     width="26"
     height="17"
     x="2.0000968"
     y="4" />
  <path
     style="fill:#7e9a4c;fill-opacity:1;fill-rule:evenodd;stroke:none;stroke-width:0.89973533px;stroke-linecap:butt;stroke-linejoin:miter;stroke-opacity:1"
     d="m 2.0000968,9 c 0,9.00161 13.0000002,12 13.0000002,12 0,0 13,-2.99839 13,-12 l 0,-2.9999995 -26.0000002,-10e-8 z"
     id="path9494-5"
     inkscape:connector-curvature="0"
     sodipodi:nodetypes="cccccc" />
  <path
     style="fill:#7e9a4c;fill-opacity:1;fill-rule:evenodd;stroke:none;stroke-width:0.89973533px;stroke-linecap:butt;stroke-linejoin:miter;stroke-opacity:1"
     d="M 2.0000968,6.0000004 C 2.0000968,4 2.9620357,3.2202137 3.5295085,2 c 0,0 3.0588236,2 5.7352941,2 2.6764704,0 5.7352944,-2 5.7352944,-2 0,0 3.058823,2 5.735294,2 2.67647,0 5.735294,-2 5.735294,-2 0,0 1.529412,2 1.529412,4.0000004 z"
     id="path9499-8"
     inkscape:connector-curvature="0"
     sodipodi:nodetypes="ccscsccc" />
  <rect
     style="opacity:1;fill:#ffffff;fill-opacity:1;stroke:none;stroke-width:1;stroke-miterlimit:4;stroke-dasharray:none;stroke-opacity:1"
     id="rect5252"
     width="26"
     height="0.99999958"
     x="2.0000968"
     y="6" />
  <rect
     style="opacity:0;fill:none;fill-opacity:1;stroke:none;stroke-width:2;stroke-linecap:round;stroke-linejoin:round;stroke-miterlimit:4;stroke-dasharray:none;stroke-opacity:1"
     id="rect4161"
     width="30"
     height="25"
     x="0"
     y="0" />
</svg>

<?xml version="1.0" encoding="utf-8"?>
<!-- Generator: Adobe Illustrator 17.1.0, SVG Export Plug-In . SVG Version: 6.00 Build 0)  -->
<!DOCTYPE svg PUBLIC "-//W3C//DTD SVG 1.1//EN" "http://www.w3.org/Graphics/SVG/1.1/DTD/svg11.dtd">
<svg version="1.1"
	 id="svg3844" xmlns:svg="http://www.w3.org/2000/svg" xmlns:cc="http://creativecommons.org/ns#" xmlns:dc="http://purl.org/dc/elements/1.1/" xmlns:rdf="http://www.w3.org/1999/02/22-rdf-syntax-ns#" sodipodi:docname="us-interstate-business-3-small.svg" inkscape:version="0.91 r13725" xmlns:inkscape="http://www.inkscape.org/namespaces/inkscape" xmlns:sodipodi="http://sodipodi.sourceforge.net/DTD/sodipodi-0.dtd"
	 xmlns="http://www.w3.org/2000/svg" xmlns:xlink="http://www.w3.org/1999/xlink" x="0px" y="0px" width="30px" height="25px"
	 viewBox="0 0 30 25" enable-background="new 0 0 30 25" xml:space="preserve">
<sodipodi:namedview  fit-margin-bottom="0" inkscape:window-width="1552" inkscape:window-height="938" inkscape:showpageshadow="true" inkscape:snap-nodes="true" fit-margin-right="0" inkscape:snap-bbox-edge-midpoints="true" inkscape:snap-intersection-paths="false" inkscape:window-x="108" inkscape:snap-smooth-nodes="true" inkscape:snap-bbox="true" inkscape:object-nodes="true" inkscape:object-paths="true" inkscape:pageopacity="0" inkscape:guide-bbox="true" inkscape:document-units="px" inkscape:pageshadow="2" inkscape:current-layer="svg3844" inkscape:window-y="17" inkscape:bbox-paths="true" inkscape:window-maximized="0" guidetolerance="10" gridtolerance="10" showgrid="true" pagecolor="#ffffff" objecttolerance="10" bordercolor="#666666" id="namedview5316" showguides="false" inkscape:cy="14.8612" inkscape:zoom="22.627418" borderopacity="1" inkscape:cx="8.0575346" borderlayer="true" fit-margin-left="0" fit-margin-top="0">
	
		<inkscape:grid  type="xygrid" snapvisiblegridlinesonly="true" spacingy="0.5px" spacingx="0.5px" empspacing="2" id="grid5480" originy="1.9983899" enabled="true" visible="true" originx="4.0000968">
		</inkscape:grid>
	<sodipodi:guide  orientation="1,0" id="guide5601" position="14.000097,18.49839"></sodipodi:guide>
	<sodipodi:guide  orientation="1,0" id="guide5603" position="4.5000968,18.49839"></sodipodi:guide>
	<sodipodi:guide  orientation="0,1" id="guide9216" position="23.500097,15.99839"></sodipodi:guide>
</sodipodi:namedview>
<path id="path9494-5-6" inkscape:connector-curvature="0" fill="#FFFFFF" d="M3.1,0.5l-0.5,1C2.2,2.5,1,3.7,1,6v3
	c0,5,3.6,8.3,7,10.2s6.8,2.7,6.8,2.7L15,22l0.2-0.1c0,0,3.4-0.8,6.8-2.7S29,14,29,9V6c0-2.5-1.7-4.6-1.7-4.6l-0.6-0.7l-0.8,0.5
	c0,0-3,1.8-5.2,1.8s-5.2-1.8-5.2-1.8L15,0.8l-0.5,0.4c0,0-3,1.8-5.2,1.8S4.1,1.1,4.1,1.1L3.1,0.5z M15,3.1C15.7,3.6,18,5,20.7,5
	c2.4,0,4.4-1.1,5.4-1.7C26.5,4,27,5,27,6v3c0,4-2.9,6.7-6,8.5c-2.9,1.7-5.7,2.4-6,2.4c-0.3-0.1-3.1-0.8-6-2.4C5.9,15.7,3,13,3,9V6
	c0-1.2,0.4-1.9,0.9-2.7C4.9,3.9,6.8,5,9.3,5C12,5,14.3,3.6,15,3.1z"/>
<rect id="rect3933-5" x="2" y="4" fill="#3A3836" fill-opacity="0" width="26" height="17"/>
<path id="path9494-5" sodipodi:nodetypes="cccccc" inkscape:connector-curvature="0" fill="#7E9A4C" d="M2,9c0,9,13,12,13,12
	s13-3,13-12V6H2L2,9z"/>
<path id="path9499-8" sodipodi:nodetypes="ccscsccc" inkscape:connector-curvature="0" fill="#7E9A4C" d="M2,6c0-2,1-2.8,1.5-4
	c0,0,3.1,2,5.7,2S15,2,15,2s3.1,2,5.7,2s5.7-2,5.7-2S28,4,28,6H2z"/>
<rect id="rect5252" x="2" y="6" fill="#FFFFFF" width="26" height="1"/>
<rect id="rect4161" fill="none" width="30" height="25"/>
</svg>
